resources/svg/minor-pintrest.svg

<svg xmlns="http://www.w3.org/2000/svg" viewBox="0 0 20 20" fill="currentColor"><path fill-rule="evenodd" fill="currentColor" d="M4 8.34665C4 5.55983 6.15291 3 10.208 3C13.4673 3 16 5.18364 16 8.10299C16 11.1481 13.958 13.5985 11.1247 13.5985C10.1725 13.5985 9.27784 13.1333 8.97177 12.5838C8.97177 12.5838 8.50058 14.2706 8.38604 14.6842C8.17396 15.4513 7.60176 16.4134 7.21802 17C6.99895 16.9362 6.78695 16.8581 6.57504 16.78C6.49333 16.0812 6.41973 15.0124 6.60856 14.2516C6.77912 13.5625 7.71031 9.85983 7.71031 9.85983C7.71031 9.85983 7.42919 9.33042 7.42919 8.5485C7.42919 7.31972 8.1862 6.4029 9.12898 6.4029C9.9308 6.4029 10.3174 6.96904 10.3174 7.64732C10.3174 8.1322 10.1079 8.77012 9.88731 9.44159C9.76286 9.82045 9.6349 10.21 9.53909 10.5887C9.31761 11.4685 10.0081 12.1859 10.9303 12.1859C12.6001 12.1859 13.8836 10.5299 13.8836 8.14004C13.8836 6.02469 12.2676 4.54548 9.9597 4.54548C7.28681 4.54548 5.71785 6.4311 5.71785 8.37995C5.71785 9.13909 6.02859 9.95329 6.41706 10.3964C6.49367 10.4841 6.50485 10.5605 6.48209 10.6496C6.43892 10.8187 6.36373 11.106 6.30422 11.3334C6.26559 11.4809 6.23357 11.6033 6.2212 11.6517C6.18038 11.8138 6.08496 11.8474 5.9072 11.7696C4.73353 11.2558 4 9.6427 4 8.34665Z"/></svg>

<svg xmlns="http://www.w3.org/2000/svg" viewBox="0 0 20 20" fill="currentColor"><path fill-rule="evenodd" fill="currentColor" d="M4 8.347c0-2.787 2.153-5.347 6.208-5.347 3.26 0 5.792 2.184 5.792 5.103 0 3.045-2.042 5.495-4.875 5.495-.953 0-1.847-.465-2.153-1.014l-.586 2.1c-.212.767-.784 1.73-1.168 2.316a9.717 9.717 0 0 1-.643-.22c-.082-.699-.155-1.768.034-2.528.17-.69 1.101-4.392 1.101-4.392s-.28-.53-.28-1.311c0-1.23.756-2.146 1.699-2.146.802 0 1.188.566 1.188 1.244 0 .485-.21 1.123-.43 1.795-.124.378-.252.768-.348 1.147-.221.88.47 1.597 1.391 1.597 1.67 0 2.954-1.656 2.954-4.046 0-2.115-1.616-3.595-3.924-3.595-2.673 0-4.242 1.886-4.242 3.835 0 .76.31 1.573.7 2.016.076.088.087.164.064.254-.043.169-.118.456-.178.683l-.083.319c-.04.162-.136.195-.314.118-1.173-.514-1.907-2.127-1.907-3.423Z"/></svg>
